Origami/64x64/apps/zegrapher.svg

<svg width="64" height="64" version="1" xmlns="http://www.w3.org/2000/svg">
 <rect transform="matrix(0,-1,-1,0,0,0)" x="-61" y="-60" width="56" height="56" rx="2.8" ry="2.8" style="opacity:.2"/>
 <rect transform="matrix(0,-1,-1,0,0,0)" x="-60" y="-60" width="56" height="56" rx="2.8" ry="2.8" style="fill:#49cbc6"/>
 <path d="m8 16v4h20l-19.886719 28h27.886719v-4h-20l19.886718-28zm40.035156 12c-3.017674 0-5.537822 0.87675-7.347656 2.671876-1.805444 1.790982-2.6875 4.31298-2.6875 7.335936 0 3.015644 0.880872 5.53098 2.683594 7.328126l4e-3 4e-3c1.810232 1.78666 4.330908 2.660062 7.347562 2.660062 1.377854 0 2.689474-0.17456 3.925782-0.527344h4e-3 4e-3c1.20737-0.35287 2.510066-0.861312 3.593562-1.597656l0.4375-0.296876v-9.578124h-8v4h3.992188v3.5c-0.32759 0.14062-0.638362 0.296876-1.03125 0.382812-0.481554 0.09886-1.905514 0.1875-2.71875 0.1875-2.036154 0-3.976846-0.625356-4.765626-1.460936-0.901492-0.964432-1.476562-2.443784-1.476562-4.601564 0.1409-4.25373 2.70708-5.937256 6.242188-6.078124 1.757812 0.070312 7.757812 0.070312 7.757812 0.070312v-4z" style="fill:#303030"/>
 <path d="M 6.8007812 4 C 5.2495812 4 4 5.2495812 4 6.8007812 L 4 7.8007812 C 4 6.2495813 5.2495812 5 6.8007812 5 L 57.199219 5 C 58.750419 5 60 6.2495812 60 7.8007812 L 60 6.8007812 C 60 5.2495813 58.750419 4 57.199219 4 L 6.8007812 4 z" style="fill:#ffffff;opacity:.2"/>
</svg>

<svg xmlns="http://www.w3.org/2000/svg" width="64" height="64" version="1">
 <rect style="opacity:0.2" width="56" height="56" x="-61" y="-60" rx="2.8" ry="2.8" transform="matrix(0,-1,-1,0,0,0)"/>
 <rect style="fill:#49cbc6" width="56" height="56" x="-60" y="-60" rx="2.8" ry="2.8" transform="matrix(0,-1,-1,0,0,0)"/>
 <path style="fill:#303030" d="M 8,16 8,20 28,20 8.1132812,48 36,48 36,44 16,44 35.886718,16 Z M 48.035156,28 C 45.017482,28 42.497334,28.87675 40.6875,30.671876 38.882056,32.462858 38,34.984856 38,38.007812 c 0,3.015644 0.880872,5.53098 2.683594,7.328126 l 0.004,0.004 C 42.497826,47.126598 45.018502,48 48.035156,48 c 1.377854,0 2.689474,-0.17456 3.925782,-0.527344 l 0.004,0 0.004,0 C 53.176308,47.119786 54.479004,46.611344 55.5625,45.875 L 56,45.578124 56,36 l -8,0 0,4 3.992188,0 0,3.5 c -0.32759,0.14062 -0.638362,0.296876 -1.03125,0.382812 -0.481554,0.09886 -1.905514,0.1875 -2.71875,0.1875 -2.036154,0 -3.976846,-0.625356 -4.765626,-1.460936 C 42.57507,41.644944 42,40.165592 42,38.007812 42.1409,33.754082 44.70708,32.070556 48.242188,31.929688 50,32 56,32 56,32 l 0,-4 z"/>
 <path style="opacity:0.2;fill:#ffffff" d="M 6.8007812 4 C 5.2495812 4 4 5.2495812 4 6.8007812 L 4 7.8007812 C 4 6.2495813 5.2495812 5 6.8007812 5 L 57.199219 5 C 58.750419 5 60 6.2495812 60 7.8007812 L 60 6.8007812 C 60 5.2495813 58.750419 4 57.199219 4 L 6.8007812 4 z"/>
</svg>
